dist/images/logo-amazon.svg

<svg width="112" height="35" viewBox="0 0 112 35" fill="none" xmlns="http://www.w3.org/2000/svg">
<path fill-rule="evenodd" clip-rule="evenodd" d="M69.3764 27.087C62.9759 31.8614 53.6661 34.4051 45.6363 34.4051C34.3869 34.4051 24.3013 30.2177 16.6207 23.2518C16.0388 22.704 16.5431 21.9604 17.2801 22.3909C25.5426 27.2435 35.7446 30.1395 46.2958 30.1395C53.3945 30.1395 61.2303 28.6524 68.4454 25.5608C69.5316 25.1303 70.4237 26.3043 69.3764 27.087Z" fill="#FF9900"/>
<path fill-rule="evenodd" clip-rule="evenodd" d="M72.0536 23.9952C71.239 22.9386 66.6229 23.4865 64.567 23.7604C63.9463 23.8387 63.8299 23.2908 64.4118 22.8995C68.0969 20.2775 74.1095 21.0602 74.8078 21.9211C75.506 22.7821 74.6138 28.887 71.1614 31.7829C70.6184 32.2134 70.1141 31.9786 70.3468 31.3916C71.1226 29.4349 72.8682 25.091 72.0536 23.9952Z" fill="#FF9900"/>
<path fill-rule="evenodd" clip-rule="evenodd" d="M64.6826 4.5065L64.6826 1.96278C64.6826 1.57143 64.9542 1.33663 65.3033 1.33663L76.5527 1.33663C76.9018 1.33663 77.2121 1.61057 77.2121 1.96278L77.2121 4.11516C77.2121 4.46737 76.9018 4.93698 76.3587 5.71966L70.5401 14.0944C72.7124 14.0552 75.001 14.3683 76.9406 15.4641C77.3673 15.6989 77.4836 16.0902 77.5224 16.4424L77.5224 19.1427C77.5224 19.534 77.1345 19.9645 76.7078 19.7297C73.2554 17.8904 68.6393 17.6947 64.8378 19.7688C64.4499 19.9645 64.0232 19.5732 64.0232 19.1818L64.0232 16.599C64.0232 16.2076 64.0232 15.5032 64.4499 14.8771L71.1995 5.13265L65.3421 5.13265C64.993 5.13265 64.6826 4.85871 64.6826 4.5065ZM23.6806 20.2776L20.267 20.2776C19.9567 20.2384 19.6851 20.0036 19.6463 19.6906L19.6463 2.00191C19.6463 1.6497 19.9567 1.37576 20.3058 1.37576L23.4867 1.37576C23.8358 1.37576 24.0685 1.6497 24.1073 1.96277L24.1073 4.27169L24.1849 4.27169C24.9995 2.04104 26.5899 0.984418 28.6846 0.984418C30.8181 0.984418 32.1758 2.04104 33.1068 4.27169C33.9214 2.04104 35.8222 0.984418 37.8393 0.984418C39.2746 0.984419 40.8262 1.57143 41.796 2.94113C42.8821 4.42823 42.6494 6.58061 42.6494 8.49819L42.6494 19.6906C42.6494 20.0428 42.3391 20.3167 41.9899 20.3167L38.6151 20.3167C38.266 20.2776 37.9945 20.0036 37.9945 19.6906L37.9945 10.2984C37.9945 9.5548 38.0721 7.67636 37.9169 6.97195C37.6454 5.79792 36.9083 5.44571 35.8998 5.44571C35.0851 5.44571 34.193 5.9936 33.8438 6.89368C33.4947 7.79377 33.5335 9.28086 33.5335 10.2984L33.5335 19.6906C33.5335 20.0428 33.2232 20.3167 32.8741 20.3167L29.4605 20.3167C29.1113 20.2776 28.8398 20.0036 28.8398 19.6906L28.8398 10.2984C28.8398 8.34164 29.1501 5.40658 26.7451 5.40658C24.3013 5.40658 24.3788 8.22424 24.3788 10.2984L24.3788 19.6906C24.3401 20.0036 24.0685 20.2776 23.6806 20.2776ZM86.9099 0.984423C91.9915 0.984423 94.7456 5.36745 94.7456 10.9636C94.7456 16.3642 91.7199 20.6689 86.9098 20.6689C81.9446 20.6689 79.2292 16.2859 79.2292 10.8071C79.1905 5.28919 81.9446 0.984422 86.9099 0.984423ZM86.9099 4.6239C84.3884 4.6239 84.2333 8.10685 84.2333 10.2592C84.2333 12.4116 84.1945 17.0294 86.8711 17.0294C89.5088 17.0294 89.664 13.3117 89.664 11.0419C89.664 9.55482 89.5864 7.75464 89.1597 6.34581C88.7718 5.09352 87.996 4.6239 86.9099 4.6239ZM101.301 20.2776L97.8877 20.2776C97.5386 20.2384 97.267 19.9645 97.267 19.6514L97.267 1.92364C97.3058 1.61057 97.5774 1.33663 97.9265 1.33663L101.107 1.33663C101.418 1.33663 101.65 1.57144 101.728 1.84538L101.728 4.54564L101.806 4.54564C102.775 2.11932 104.094 0.984424 106.46 0.984424C107.973 0.984425 109.486 1.5323 110.456 3.05853C111.348 4.46736 111.348 6.85455 111.348 8.57646L111.348 19.7297C111.309 20.0428 111.038 20.2776 110.689 20.2776L107.275 20.2776C106.965 20.2384 106.693 20.0036 106.654 19.7297L106.654 10.1027C106.654 8.14598 106.887 5.32832 104.521 5.32832C103.706 5.32832 102.931 5.8762 102.543 6.73716C102.077 7.83291 102 8.88953 102 10.1027L102 19.6514C101.961 20.0036 101.65 20.2776 101.301 20.2776ZM55.7219 11.8246C55.7219 13.1552 55.7607 14.29 55.1013 15.5032C54.5582 16.4816 53.7048 17.0686 52.735 17.0686C51.4161 17.0686 50.6403 16.0511 50.6403 14.564C50.6403 11.6289 53.2393 11.081 55.7219 11.081L55.7219 11.8246ZM59.1743 20.2384C58.9416 20.4341 58.6312 20.4732 58.3597 20.3167C57.2348 19.3775 57.002 18.9079 56.3814 18.0078C54.5194 19.9254 53.1617 20.5124 50.7567 20.5124C47.8862 20.5124 45.6363 18.7122 45.6363 15.151C45.6363 12.3333 47.1491 10.4549 49.2826 9.51567C51.1446 8.69385 53.7436 8.53732 55.7219 8.30252L55.7219 7.87204C55.7219 7.05022 55.7995 6.07187 55.2952 5.36745C54.8685 4.74131 54.0927 4.46736 53.3945 4.46736C52.0756 4.46736 50.9119 5.13265 50.6403 6.54148C50.5627 6.85455 50.3688 7.16762 50.0585 7.16762L46.7612 6.81541C46.4897 6.73714 46.1794 6.54148 46.2569 6.111C47.0328 2.04105 50.6403 0.827885 53.8988 0.827886C55.5668 0.827886 57.7391 1.25836 59.058 2.54979C60.726 4.11516 60.5708 6.22841 60.5708 8.49819L60.5708 13.8596C60.5708 15.4641 61.2302 16.1685 61.8509 17.0686C62.0836 17.3817 62.1224 17.773 61.8509 17.9687C61.1139 18.5557 59.8726 19.6514 59.1743 20.2384ZM10.9184 11.8246C10.9184 13.1552 10.9572 14.29 10.2977 15.5032C9.75465 16.4816 8.90125 17.0686 7.93148 17.0686C6.61258 17.0686 5.83677 16.0511 5.83677 14.564C5.83677 11.6289 8.43576 11.081 10.9184 11.081L10.9184 11.8246ZM14.332 20.2384C14.0992 20.4341 13.7889 20.4732 13.5174 20.3167C12.3924 19.3775 12.1597 18.9079 11.539 18.0078C9.67707 19.9254 8.31939 20.5124 5.91435 20.5124C3.04382 20.5124 0.793944 18.7122 0.793944 15.151C0.793944 12.3333 2.30679 10.4549 4.44029 9.51566C6.30226 8.69385 8.90125 8.53732 10.8796 8.30251L10.8796 7.87204C10.8796 7.05022 10.9572 6.07187 10.4529 5.36745C10.0262 4.7413 9.25037 4.46736 8.55214 4.46736C7.23324 4.46736 6.06951 5.13265 5.79798 6.54148C5.72039 6.85455 5.52644 7.16761 5.21611 7.16761L1.91888 6.81541C1.64734 6.73714 1.33702 6.54147 1.4146 6.111C2.19042 2.04104 5.79798 0.827881 9.05642 0.827882C10.7244 0.827882 12.8967 1.25836 14.2156 2.54978C15.8836 4.11515 15.7285 6.2284 15.7285 8.49819L15.7285 13.8596C15.7285 15.4641 16.3879 16.1685 17.0086 17.0686C17.2413 17.3816 17.2801 17.773 17.0086 17.9687C16.2715 18.5557 15.0302 19.6514 14.332 20.2384Z" fill="black"/>
</svg>

<svg width="112" height="35" viewBox="0 0 112 35" fill="none" xmlns="http://www.w3.org/2000/svg"><path fill-rule="evenodd" clip-rule="evenodd" d="M69.376 27.087c-6.4 4.774-15.71 7.318-23.74 7.318-11.25 0-21.335-4.187-29.015-11.153-.582-.548-.078-1.292.66-.861 8.262 4.853 18.464 7.749 29.015 7.749 7.099 0 14.934-1.488 22.15-4.58 1.086-.43 1.978.744.93 1.527z" fill="#F90"/><path fill-rule="evenodd" clip-rule="evenodd" d="M72.054 23.995c-.815-1.056-5.431-.509-7.487-.235-.62.079-.737-.47-.155-.86 3.685-2.622 9.697-1.84 10.396-.979.698.861-.194 6.966-3.647 9.862-.543.43-1.047.196-.814-.391.776-1.957 2.521-6.301 1.707-7.397z" fill="#F90"/><path fill-rule="evenodd" clip-rule="evenodd" d="M64.683 4.506V1.963c0-.392.271-.626.62-.626h11.25c.349 0 .66.274.66.626v2.152c0 .352-.311.822-.854 1.605l-5.819 8.374c2.172-.039 4.461.274 6.4 1.37.427.235.544.626.582.978v2.7c0 .392-.388.823-.814.588-3.453-1.84-8.069-2.035-11.87.039-.388.196-.815-.196-.815-.587v-2.583c0-.391 0-1.096.427-1.722l6.75-9.744h-5.858c-.349 0-.66-.274-.66-.627zM23.68 20.279h-3.414c-.31-.04-.582-.274-.62-.587V2c0-.351.31-.625.659-.625h3.18c.35 0 .582.274.621.587v2.309h.078C25 2.04 26.59.984 28.685.984c2.133 0 3.49 1.057 4.422 3.288C33.92 2.04 35.822.984 37.839.984c1.436 0 2.987.587 3.957 1.957 1.086 1.487.853 3.64.853 5.557v11.193c0 .352-.31.626-.66.626h-3.374c-.349-.04-.62-.313-.62-.626v-9.393c0-.743.077-2.622-.078-3.326-.272-1.174-1.009-1.526-2.017-1.526-.815 0-1.707.548-2.056 1.448-.35.9-.31 2.387-.31 3.404v9.393c0 .352-.31.626-.66.626H29.46c-.349-.04-.62-.313-.62-.626v-9.393c0-1.956.31-4.891-2.095-4.891-2.444 0-2.366 2.817-2.366 4.891v9.393a.683.683 0 0 1-.698.587zM86.91.984c5.082 0 7.836 4.383 7.836 9.98 0 5.4-3.026 9.705-7.836 9.705-4.965 0-7.68-4.383-7.68-9.862C79.19 5.29 81.944.984 86.91.984zm0 3.64c-2.522 0-2.677 3.483-2.677 5.635 0 2.153-.038 6.77 2.638 6.77 2.638 0 2.793-3.717 2.793-5.987 0-1.487-.078-3.287-.504-4.696-.388-1.252-1.164-1.722-2.25-1.722zM101.3 20.278h-3.413c-.35-.04-.621-.313-.621-.627V1.924a.673.673 0 0 1 .66-.587h3.18c.311 0 .543.234.621.508v2.7h.078c.969-2.426 2.288-3.56 4.654-3.56 1.513 0 3.026.547 3.996 2.074.892 1.408.892 3.796.892 5.517V19.73c-.039.313-.31.548-.659.548h-3.414c-.31-.04-.582-.274-.621-.548v-9.627c0-1.957.233-4.775-2.133-4.775-.815 0-1.59.548-1.978 1.41-.466 1.095-.543 2.152-.543 3.365v9.548a.714.714 0 0 1-.699.627zm-45.58-8.453c0 1.33.04 2.465-.62 3.678-.543.979-1.396 1.566-2.366 1.566-1.319 0-2.095-1.018-2.095-2.505 0-2.935 2.6-3.483 5.082-3.483v.744zm3.453 8.413a.696.696 0 0 1-.814.079c-1.125-.94-1.358-1.41-1.979-2.31-1.862 1.918-3.22 2.505-5.624 2.505-2.87 0-5.12-1.8-5.12-5.361 0-2.818 1.512-4.696 3.646-5.635 1.862-.822 4.46-.979 6.439-1.213v-.431c0-.822.078-1.8-.427-2.505-.427-.626-1.202-.9-1.9-.9-1.32 0-2.483.666-2.755 2.074-.077.314-.271.627-.581.627l-3.298-.353c-.271-.078-.582-.274-.504-.704.776-4.07 4.383-5.283 7.642-5.283 1.668 0 3.84.43 5.159 1.722 1.668 1.565 1.513 3.678 1.513 5.948v5.362c0 1.604.66 2.309 1.28 3.209.233.313.271.704 0 .9-.737.587-1.978 1.682-2.677 2.27zm-48.256-8.413c0 1.33.04 2.465-.62 3.678-.543.979-1.397 1.566-2.367 1.566-1.318 0-2.094-1.018-2.094-2.505 0-2.935 2.599-3.483 5.081-3.483v.744zm3.414 8.413a.697.697 0 0 1-.815.079c-1.125-.94-1.357-1.41-1.978-2.31-1.862 1.918-3.22 2.505-5.625 2.505-2.87 0-5.12-1.8-5.12-5.361 0-2.818 1.513-4.696 3.646-5.635 1.862-.822 4.461-.979 6.44-1.213v-.431c0-.822.077-1.8-.427-2.505-.427-.626-1.203-.9-1.9-.9-1.32 0-2.483.666-2.755 2.074-.078.314-.272.627-.582.627L1.92 6.815c-.272-.078-.582-.274-.504-.704C2.19 2.041 5.798.828 9.056.828c1.668 0 3.84.43 5.16 1.722 1.668 1.565 1.513 3.678 1.513 5.948v5.362c0 1.604.659 2.309 1.28 3.209.232.313.271.704 0 .9-.738.587-1.979 1.682-2.677 2.27z" fill="#000"/></svg>
